img/arrow-right.svg

<svg width="76" height="76" viewBox="0 0 76 76" fill="none" xmlns="http://www.w3.org/2000/svg">
<path d="M37.9998 12.1598C52.2878 12.1598 63.8398 23.7118 63.8398 37.9998C63.8398 52.2878 52.2878 63.8398 37.9998 63.8398C23.7118 63.8398 12.1598 52.2878 12.1598 37.9998C12.1598 23.7118 23.7118 12.1598 37.9998 12.1598ZM37.9998 60.7998C50.6158 60.7998 60.7998 50.6158 60.7998 37.9998C60.7998 25.3838 50.6158 15.1998 37.9998 15.1998C25.3838 15.1998 15.1998 25.3838 15.1998 37.9998C15.1998 50.6158 25.3838 60.7998 37.9998 60.7998Z" fill="#728FCE"/>
<path d="M37.5441 23.2561L52.2881 38.0001L37.5441 52.7441L35.4161 50.6161L48.0321 38.0001L35.4161 25.3841L37.5441 23.2561Z" fill="#728FCE"/>
<path d="M50.1602 39.5195L24.3202 39.5195V36.4795L50.1602 36.4795V39.5195Z" fill="#728FCE"/>
</svg>

<svg width="76" height="76" fill="none" xmlns="http://www.w3.org/2000/svg"><path d="M38 12.16c14.288 0 25.84 11.552 25.84 25.84S52.288 63.84 38 63.84 12.16 52.288 12.16 38 23.712 12.16 38 12.16zm0 48.64c12.616 0 22.8-10.184 22.8-22.8 0-12.616-10.184-22.8-22.8-22.8-12.616 0-22.8 10.184-22.8 22.8 0 12.616 10.184 22.8 22.8 22.8z" fill="#728FCE"/><path d="M37.544 23.256 52.288 38 37.544 52.744l-2.128-2.128L48.032 38 35.416 25.384l2.128-2.128z" fill="#728FCE"/><path d="M50.16 39.52H24.32v-3.04h25.84v3.04z" fill="#728FCE"/></svg>
